X:602
T: ACH SCHOENSTER SCHATZ MEIN AUGENTROST
N: E0560A
O: Europa, Mitteleuropa, Deutschland, Hessen, Odenwald
R: Liebes - Lied
M: 3/4
L: 1/8
K: G
DGA | B2B2AA | G2z
ABc | dedBcd | B2z
dBc | d2edcB | c2z
dBA | BdcBAG | A2z
ABc | dedBcd | B2z

